nova/resources/svg/fluent/glance.svg

<svg width="24" height="24" viewBox="0 0 24 24" fill="none" xmlns="http://www.w3.org/2000/svg">
<path d="M19.2501 11.0017C20.2166 11.0017 21.0001 11.7852 21.0001 12.7517V19.2517C21.0001 20.2182 20.2166 21.0017 19.2501 21.0017H14.7501C13.7836 21.0017 13.0001 20.2182 13.0001 19.2517V12.7517C13.0001 11.7852 13.7836 11.0017 14.7501 11.0017H19.2501ZM9.26831 15.0141C10.2348 15.0141 11.0183 15.7976 11.0183 16.7641V19.2517C11.0183 20.2182 10.2348 21.0017 9.26831 21.0017H4.75391C3.78741 21.0017 3.00391 20.2182 3.00391 19.2517V16.7641C3.00391 15.7976 3.78741 15.0141 4.75391 15.0141H9.26831ZM19.2501 12.5017H14.7501C14.612 12.5017 14.5001 12.6136 14.5001 12.7517V19.2517C14.5001 19.3898 14.612 19.5017 14.7501 19.5017H19.2501C19.3882 19.5017 19.5001 19.3898 19.5001 19.2517V12.7517C19.5001 12.6136 19.3882 12.5017 19.2501 12.5017ZM9.26831 16.5141H4.75391C4.61584 16.5141 4.50391 16.626 4.50391 16.7641V19.2517C4.50391 19.3898 4.61584 19.5017 4.75391 19.5017H9.26831C9.40638 19.5017 9.51831 19.3898 9.51831 19.2517V16.7641C9.51831 16.626 9.40638 16.5141 9.26831 16.5141ZM9.25391 3C10.2204 3 11.0039 3.7835 11.0039 4.75V11.25C11.0039 12.1682 10.2968 12.9212 9.39743 12.9942L9.25391 13H4.75391C3.78741 13 3.00391 12.2165 3.00391 11.25V4.75C3.00391 3.7835 3.78741 3 4.75391 3H9.25391ZM9.25391 4.5H4.75391C4.61584 4.5 4.50391 4.61193 4.50391 4.75V11.25C4.50391 11.3881 4.61584 11.5 4.75391 11.5H9.25391L9.31123 11.4934C9.42167 11.4675 9.50391 11.3683 9.50391 11.25V4.75C9.50391 4.61193 9.39198 4.5 9.25391 4.5ZM19.2501 3C20.2166 3 21.0001 3.7835 21.0001 4.75V7.25C21.0001 8.2165 20.2166 9 19.2501 9H14.7501C13.7836 9 13.0001 8.2165 13.0001 7.25V4.75C13.0001 3.7835 13.7836 3 14.7501 3H19.2501ZM14.7501 4.5C14.612 4.5 14.5001 4.61193 14.5001 4.75V7.25C14.5001 7.38807 14.612 7.5 14.7501 7.5H19.2501C19.3882 7.5 19.5001 7.38807 19.5001 7.25V4.75C19.5001 4.61193 19.3882 4.5 19.2501 4.5H14.7501Z" fill="currentColor"/>
</svg>

<svg viewBox="0 0 24 24" fill="none" xmlns="http://www.w3.org/2000/svg"><path d="M19.25 11.002c.967 0 1.75.783 1.75 1.75v6.5a1.75 1.75 0 01-1.75 1.75h-4.5a1.75 1.75 0 01-1.75-1.75v-6.5c0-.967.784-1.75 1.75-1.75h4.5zm-9.982 4.012c.967 0 1.75.784 1.75 1.75v2.488a1.75 1.75 0 01-1.75 1.75H4.754a1.75 1.75 0 01-1.75-1.75v-2.488c0-.966.783-1.75 1.75-1.75h4.514zm9.982-2.512h-4.5a.25.25 0 00-.25.25v6.5c0 .138.112.25.25.25h4.5a.25.25 0 00.25-.25v-6.5a.25.25 0 00-.25-.25zm-9.982 4.012H4.754a.25.25 0 00-.25.25v2.488c0 .138.112.25.25.25h4.514a.25.25 0 00.25-.25v-2.488a.25.25 0 00-.25-.25zM9.254 3c.966 0 1.75.784 1.75 1.75v6.5a1.75 1.75 0 01-1.607 1.744L9.254 13h-4.5a1.75 1.75 0 01-1.75-1.75v-6.5c0-.966.783-1.75 1.75-1.75h4.5zm0 1.5h-4.5a.25.25 0 00-.25.25v6.5c0 .138.112.25.25.25h4.5l.057-.007a.25.25 0 00.193-.243v-6.5a.25.25 0 00-.25-.25zM19.25 3c.967 0 1.75.784 1.75 1.75v2.5A1.75 1.75 0 0119.25 9h-4.5A1.75 1.75 0 0113 7.25v-2.5c0-.966.784-1.75 1.75-1.75h4.5zm-4.5 1.5a.25.25 0 00-.25.25v2.5c0 .138.112.25.25.25h4.5a.25.25 0 00.25-.25v-2.5a.25.25 0 00-.25-.25h-4.5z" fill="currentColor"/></svg>
